public/svg-icons/adresse-icon.svg

<svg viewBox="0 0 31 31" xmlns="http://www.w3.org/2000/svg"><path d="m0 15.5 15.5-15.5 15.5 15.5v15.5h-9.69v-11.62h-11.62v11.62h-9.69z" fill-rule="evenodd"/></svg>

<svg id="Ebene_1" data-name="Ebene 1" xmlns="http://www.w3.org/2000/svg" viewBox="0 0 31 31"><defs><style>.cls-1{fill-rule:evenodd;}</style></defs><title>adresse-icon</title><path id="home-2" class="cls-1" d="M0,15.5,15.5,0,31,15.5V31H21.31V19.38H9.69V31H0Z"/></svg>
